24x24/apps/dirt-rally.svg

<svg xmlns="http://www.w3.org/2000/svg" width="24" height="24" version="1">
 <rect style="fill:#4f4f4f" width="20" height="20" x="2" y="2" rx="1" ry="1"/>
 <path style="opacity:0.1;fill:#f4f4f7" d="M 3,2 C 2.446,2 2,2.446 2,3 l 0,0.5 c 0,-0.554 0.446,-1 1,-1 l 18,0 c 0.554,0 1,0.446 1,1 L 22,3 C 22,2.446 21.554,2 21,2 L 3,2 Z"/>
 <path style="opacity:0.2" d="m 3,22.5 c -0.554,0 -1,-0.446 -1,-1 L 2,21 c 0,0.554 0.446,1 1,1 l 18,0 c 0.554,0 1,-0.446 1,-1 l 0,0.5 c 0,0.554 -0.446,1 -1,1 l -18,0 z"/>
 <path style="opacity:0.2" d="M 7.5,4.5 C 7.223,4.5 7,4.723 7,5 L 7,9.5 7,14 c 0,0.277 0.223,0.5 0.5,0.5 l 4.5,0 a 5,5 0 0 0 5,-5 5,5 0 0 0 -5,-5 l -4.5,0 z m 2.701172,3 L 12,7.5 a 2,2 0 0 1 2,2 2,2 0 0 1 -2,2 l -1.798828,0 C 10.090372,11.5 10,11.409628 10,11.298828 L 10,9.5 10,7.7011719 C 10,7.590372 10.090372,7.5 10.201172,7.5 Z"/>
 <path style="fill:#f4f4f7" d="M 7.5 4 C 7.223 4 7 4.223 7 4.5 L 7 9 L 7 13.5 C 7 13.777 7.223 14 7.5 14 L 12 14 A 5 5 0 0 0 17 9 A 5 5 0 0 0 12 4 L 7.5 4 z M 10.201172 7 L 12 7 A 2 2 0 0 1 14 9 A 2 2 0 0 1 12 11 L 10.201172 11 C 10.090372 11 10 10.909628 10 10.798828 L 10 9 L 10 7.2011719 C 10 7.090372 10.090372 7 10.201172 7 z"/>
 <g style="opacity:0.2;stroke:#000000" transform="translate(0,0.5000005)">
  <path style="fill:none;stroke:#000000;stroke-width:0.999937;stroke-linecap:round" d="M 5.5069175,20.492861 4.50698,18.992955 M 3.5070421,18.492986 c 0,0 1.9998754,0.232235 1.9998754,-0.999936 0,-1.232173 -1.9998754,-0.999938 -1.9998754,-0.999938 m 4.92e-5,3.999798 0,-3.999749"/>
  <path style="fill:none;stroke:#000000;stroke-width:0.999937;stroke-linecap:round;stroke-linejoin:bevel" d="m 7.5070895,18.993005 1.999874,0 m -1.999824,1.499905 0,-2.999811 m 1.999824,2.999811 0,-2.999811 m -1.999874,0 c 0,0 0,-0.999938 0.999937,-0.999938 0.999937,0 0.999937,0.999938 0.999937,0.999938"/>
  <path style="fill:none;stroke:#000000;stroke-width:0.999937;stroke-linecap:round;stroke-linejoin:round" d="m 11.500018,16.500232 0,3.999749 1.999874,0 0,0"/>
  <path style="fill:none;stroke:#000000;stroke-width:0.999937;stroke-linecap:round;stroke-linejoin:round" d="m 15.500018,16.500232 0,3.999749 1.999874,0 0,0"/>
  <path style="fill:none;stroke:#000000;stroke-width:0.999937;stroke-linecap:round" d="m 19.504166,20.49291 0,-1.999875 m 1.499906,-1.999874 -1.499906,1.999874 m -1.499905,-1.999874 1.499905,1.999874"/>
 </g>
 <g>
  <path style="fill:none;stroke:#f07400;stroke-width:0.999937;stroke-linecap:round" d="M 5.5069175,20.492861 4.50698,18.992955 M 3.5070421,18.492986 c 0,0 1.9998754,0.232235 1.9998754,-0.999936 0,-1.232173 -1.9998754,-0.999938 -1.9998754,-0.999938 m 4.92e-5,3.999798 0,-3.999749"/>
  <path style="fill:none;stroke:#f07400;stroke-width:0.999937;stroke-linecap:round;stroke-linejoin:bevel" d="m 7.5070895,18.993005 1.999874,0 m -1.999824,1.499905 0,-2.999811 m 1.999824,2.999811 0,-2.999811 m -1.999874,0 c 0,0 0,-0.999938 0.999937,-0.999938 0.999937,0 0.999937,0.999938 0.999937,0.999938"/>
  <path style="fill:none;stroke:#f07400;stroke-width:0.999937;stroke-linecap:round;stroke-linejoin:round" d="m 11.500018,16.500232 0,3.999749 1.999874,0 0,0"/>
  <path style="fill:none;stroke:#f07400;stroke-width:0.999937;stroke-linecap:round;stroke-linejoin:round" d="m 15.500018,16.500232 0,3.999749 1.999874,0 0,0"/>
  <path style="fill:none;stroke:#f07400;stroke-width:0.999937;stroke-linecap:round" d="m 19.504166,20.49291 0,-1.999875 m 1.499906,-1.999874 -1.499906,1.999874 m -1.499905,-1.999874 1.499905,1.999874"/>
 </g>
</svg>

<svg xmlns="http://www.w3.org/2000/svg" width="24" height="24" version="1"><rect style="fill:#4f4f4f" width="20" height="20" x="2" y="2" rx="1" ry="1"/><path style="opacity:.1;fill:#f4f4f7" d="M3 2c-.554 0-1 .446-1 1v.5c0-.554.446-1 1-1h18c.554 0 1 .446 1 1V3c0-.554-.446-1-1-1H3z"/><path style="opacity:.2" d="M3 22.5c-.554 0-1-.446-1-1V21c0 .554.446 1 1 1h18c.554 0 1-.446 1-1v.5c0 .554-.446 1-1 1H3zM7.5 4.5c-.277 0-.5.223-.5.5v9c0 .277.223.5.5.5H12a5 5 0 0 0 5-5 5 5 0 0 0-5-5H7.5zm2.701 3H12a2 2 0 0 1 2 2 2 2 0 0 1-2 2h-1.799a.202.202 0 0 1-.201-.201V7.7c0-.11.09-.201.201-.201z"/><path style="fill:#f4f4f7" d="M7.5 4c-.277 0-.5.223-.5.5v9c0 .277.223.5.5.5H12a5 5 0 0 0 5-5 5 5 0 0 0-5-5H7.5zm2.701 3H12a2 2 0 0 1 2 2 2 2 0 0 1-2 2h-1.799a.202.202 0 0 1-.201-.201V7.2c0-.11.09-.201.201-.201z"/><g style="opacity:.2;stroke:#000"><path style="fill:none;stroke:#000;stroke-width:.999937;stroke-linecap:round" d="m5.507 20.493-1-1.5m-1-.5s2 .232 2-1-2-1-2-1m0 4v-4" transform="translate(0 .5)"/><path style="fill:none;stroke:#000;stroke-width:.999937;stroke-linecap:round;stroke-linejoin:bevel" d="M7.507 18.993h2m-2 1.5v-3m2 3v-3m-2 0s0-1 1-1 1 1 1 1" transform="translate(0 .5)"/><path style="fill:none;stroke:#000;stroke-width:.999937;stroke-linecap:round;stroke-linejoin:round" d="M11.5 16.5v4h2M15.5 16.5v4h2" transform="translate(0 .5)"/><path style="fill:none;stroke:#000;stroke-width:.999937;stroke-linecap:round" d="M19.504 20.493v-2m1.5-2-1.5 2m-1.5-2 1.5 2" transform="translate(0 .5)"/></g><path style="fill:none;stroke:#f07400;stroke-width:.999937;stroke-linecap:round" d="m5.507 20.493-1-1.5m-1-.5s2 .232 2-1-2-1-2-1m0 4v-4"/><path style="fill:none;stroke:#f07400;stroke-width:.999937;stroke-linecap:round;stroke-linejoin:bevel" d="M7.507 18.993h2m-2 1.5v-3m2 3v-3m-2 0s0-1 1-1 1 1 1 1"/><path style="fill:none;stroke:#f07400;stroke-width:.999937;stroke-linecap:round;stroke-linejoin:round" d="M11.5 16.5v4h2M15.5 16.5v4h2"/><path style="fill:none;stroke:#f07400;stroke-width:.999937;stroke-linecap:round" d="M19.504 20.493v-2m1.5-2-1.5 2m-1.5-2 1.5 2"/></svg>
